poi/svg/1903.svg

<?xml version="1.0" encoding="UTF-8" standalone="no"?>
<svg
   xmlns:dc="http://purl.org/dc/elements/1.1/"
   xmlns:cc="http://creativecommons.org/ns#"
   xmlns:rdf="http://www.w3.org/1999/02/22-rdf-syntax-ns#"
   xmlns:svg="http://www.w3.org/2000/svg"
   xmlns="http://www.w3.org/2000/svg"
   xmlns:sodipodi="http://sodipodi.sourceforge.net/DTD/sodipodi-0.dtd"
   xmlns:inkscape="http://www.inkscape.org/namespaces/inkscape"
   inkscape:version="1.0 (4035a4fb49, 2020-05-01)"
   sodipodi:docname="1903.svg"
   id="svg20"
   version="1.2"
   viewBox="0 0 42.519639 42.519639"
   height="14.999999mm"
   width="14.999999mm">
  <metadata
     id="metadata24">
    <rdf:RDF>
      <cc:Work
         rdf:about="">
        <dc:format>image/svg+xml</dc:format>
        <dc:type
           rdf:resource="http://purl.org/dc/dcmitype/StillImage" />
        <dc:title>Qt SVG Document</dc:title>
      </cc:Work>
    </rdf:RDF>
  </metadata>
  <sodipodi:namedview
     inkscape:current-layer="svg20"
     inkscape:window-maximized="0"
     inkscape:window-y="0"
     inkscape:window-x="0"
     inkscape:cy="28.346482"
     inkscape:cx="28.346482"
     inkscape:zoom="5.8410537"
     showgrid="false"
     id="namedview22"
     inkscape:window-height="480"
     inkscape:window-width="1034"
     inkscape:pageshadow="2"
     inkscape:pageopacity="0"
     guidetolerance="10"
     gridtolerance="10"
     objecttolerance="10"
     borderopacity="1"
     bordercolor="#666666"
     pagecolor="#ffffff" />
  <title
     id="title2">Qt SVG Document</title>
  <desc
     id="desc4">Generated with Qt</desc>
  <defs
     id="defs6" />
  <g
     transform="translate(5.25984,5.25984)"
     id="g18"
     stroke-linejoin="bevel"
     stroke-linecap="square"
     fill-rule="evenodd"
     stroke-width="1"
     stroke="#000000"
     fill="none">
    <g
       id="g10"
       font-style="normal"
       font-weight="400"
       font-size="7.8px"
       font-family="'MS Shell Dlg 2'"
       stroke="none"
       fill-opacity="1"
       fill="#a61215">
      <path
         id="path8"
         d="M 37.2598,16 C 37.2598,27.7415 27.7415,37.2598 16,37.2598 4.25851,37.2598 -5.25984,27.7415 -5.25984,16 -5.25984,4.25851 4.25851,-5.25984 16,-5.25984 27.7415,-5.25984 37.2598,4.25851 37.2598,16"
         fill-rule="evenodd"
         vector-effect="non-scaling-stroke" />
    </g>
    <g
       id="g14"
       font-style="normal"
       font-weight="400"
       font-size="7.8px"
       font-family="'MS Shell Dlg 2'"
       transform="translate(16,12.0315)"
       stroke="none"
       fill-opacity="0.94902"
       fill="#ffffff">
      <path
         id="path12"
         d="m -5.15283,6.77637 c -0.37793,0 -0.68587,-0.12248 -0.92383,-0.36743 -0.23796,-0.24496 -0.35693,-0.5564 -0.35693,-0.93433 0,-0.33594 0.11897,-0.62638 0.35693,-0.87134 0.23796,-0.24495 0.5459,-0.36743 0.92383,-0.36743 0.37793,0 0.67887,0.12248 0.90283,0.36743 0.22396,0.24496 0.33594,0.5354 0.33594,0.87134 0,0.37793 -0.11198,0.68937 -0.33594,0.93433 -0.22396,0.24495 -0.5249,0.36743 -0.90283,0.36743 M 2.40576,5.05469 c 0.5459,0 1.0708,0.06299 1.57471,0.18896 0.50391,0.12598 0.94832,0.30445 1.33325,0.5354 0.38493,0.23096 0.69287,0.51091 0.92383,0.83985 0.23096,0.32894 0.34643,0.68237 0.34643,1.0603 V 8.75 H -1.37354 V 5.05469 h 3.7793 M -2.92725,4.9707 c 0.20996,0 0.37093,0.06299 0.48291,0.18897 0.11198,0.12597 0.16797,0.25895 0.16797,0.39892 v 2.54053 c 0,0.43392 -0.21696,0.65088 -0.65088,0.65088 h -2.87646 c -0.16797,0 -0.31494,-0.05599 -0.44092,-0.16797 -0.12598,-0.11198 -0.18896,-0.27295 -0.18896,-0.48291 0,-0.13997 0.06298,-0.27295 0.18896,-0.39892 0.12598,-0.12598 0.27295,-0.18897 0.44092,-0.18897 h 2.28857 V 5.55859 c 0,-0.13997 0.05599,-0.27295 0.16797,-0.39892 0.11198,-0.12598 0.25196,-0.18897 0.41992,-0.18897 m 12.00977,7.8315 h 1.72168 v 1.4488 h -21.542 v -1.4488 h 1.40675 V 5.05469 H -13.5303 L 0.0541992,-6.34619 5.21924,-2 V -4.87646 H 4.8623 v -1.72168 h 2.87647 v 1.72168 H 7.40283 v 4.682124 L 13.5967,5.05469 H 9.08252 V 12.8022 M 7.92773,11.1226 H -8.0293 v 1.6796 H 7.92773 v -1.6796 m 0,-7.32768 H 10.2793 L 0.0541992,-4.79248 -10.2339,3.79492 h 2.2046 V 9.90479 H 7.92773 V 3.79492"
         fill-rule="evenodd"
         vector-effect="none" />
    </g>
    <g
       id="g16"
       font-style="normal"
       font-weight="400"
       font-size="7.8px"
       font-family="'MS Shell Dlg 2'"
       stroke="none"
       fill-opacity="1"
       fill="#a61215" />
  </g>
</svg>

<?xml version="1.0" encoding="UTF-8" standalone="no"?>
<svg width="11.2889mm" height="11.2889mm"
 viewBox="0 0 32 32"
 xmlns="http://www.w3.org/2000/svg" xmlns:xlink="http://www.w3.org/1999/xlink"  version="1.2" baseProfile="tiny">
<title>Qt SVG Document</title>
<desc>Generated with Qt</desc>
<defs>
</defs>
<g fill="none" stroke="black" stroke-width="1" fill-rule="evenodd" stroke-linecap="square" stroke-linejoin="bevel" >

<g fill="#a61215" fill-opacity="1" stroke="none" transform="matrix(1,0,0,1,0,0)"
font-family="MS Shell Dlg 2" font-size="7.8" font-weight="400" font-style="normal" 
>
<path vector-effect="non-scaling-stroke" fill-rule="evenodd" d="M37.2598,16 C37.2598,27.7415 27.7415,37.2598 16,37.2598 C4.25851,37.2598 -5.25984,27.7415 -5.25984,16 C-5.25984,4.25851 4.25851,-5.25984 16,-5.25984 C27.7415,-5.25984 37.2598,4.25851 37.2598,16 "/>
</g>

<g fill="#ffffff" fill-opacity="0.94902" stroke="none" transform="matrix(1,0,0,1,16,12.0315)"
font-family="MS Shell Dlg 2" font-size="7.8" font-weight="400" font-style="normal" 
>
<path vector-effect="none" fill-rule="evenodd" d="M-5.15283,6.77637 C-5.53076,6.77637 -5.8387,6.65389 -6.07666,6.40894 C-6.31462,6.16398 -6.43359,5.85254 -6.43359,5.47461 C-6.43359,5.13867 -6.31462,4.84823 -6.07666,4.60327 C-5.8387,4.35832 -5.53076,4.23584 -5.15283,4.23584 C-4.7749,4.23584 -4.47396,4.35832 -4.25,4.60327 C-4.02604,4.84823 -3.91406,5.13867 -3.91406,5.47461 C-3.91406,5.85254 -4.02604,6.16398 -4.25,6.40894 C-4.47396,6.65389 -4.7749,6.77637 -5.15283,6.77637 M2.40576,5.05469 C2.95166,5.05469 3.47656,5.11768 3.98047,5.24365 C4.48438,5.36963 4.92879,5.5481 5.31372,5.77905 C5.69865,6.01001 6.00659,6.28996 6.23755,6.6189 C6.46851,6.94784 6.58398,7.30127 6.58398,7.6792 L6.58398,8.75 L-1.37354,8.75 L-1.37354,5.05469 L2.40576,5.05469 M-2.92725,4.9707 C-2.71729,4.9707 -2.55632,5.03369 -2.44434,5.15967 C-2.33236,5.28564 -2.27637,5.41862 -2.27637,5.55859 L-2.27637,8.09912 C-2.27637,8.53304 -2.49333,8.75 -2.92725,8.75 L-5.80371,8.75 C-5.97168,8.75 -6.11865,8.69401 -6.24463,8.58203 C-6.37061,8.47005 -6.43359,8.30908 -6.43359,8.09912 C-6.43359,7.95915 -6.37061,7.82617 -6.24463,7.7002 C-6.11865,7.57422 -5.97168,7.51123 -5.80371,7.51123 L-3.51514,7.51123 L-3.51514,5.55859 C-3.51514,5.41862 -3.45915,5.28564 -3.34717,5.15967 C-3.23519,5.03369 -3.09521,4.9707 -2.92725,4.9707 M9.08252,12.8022 L10.8042,12.8022 L10.8042,14.251 L-10.7378,14.251 L-10.7378,12.8022 L-9.33105,12.8022 L-9.33105,5.05469 L-13.5303,5.05469 L0.0541992,-6.34619 L5.21924,-2 L5.21924,-4.87646 L4.8623,-4.87646 L4.8623,-6.59814 L7.73877,-6.59814 L7.73877,-4.87646 L7.40283,-4.87646 L7.40283,-0.194336 L13.5967,5.05469 L9.08252,5.05469 L9.08252,12.8022 M7.92773,11.1226 L-8.0293,11.1226 L-8.0293,12.8022 L7.92773,12.8022 L7.92773,11.1226 M7.92773,3.79492 L10.2793,3.79492 L0.0541992,-4.79248 L-10.2339,3.79492 L-8.0293,3.79492 L-8.0293,9.90479 L7.92773,9.90479 L7.92773,3.79492"/>
</g>

<g fill="#a61215" fill-opacity="1" stroke="none" transform="matrix(1,0,0,1,0,0)"
font-family="MS Shell Dlg 2" font-size="7.8" font-weight="400" font-style="normal" 
>
</g>
</g>
</svg>
